images/bax.svg

<svg height="250" viewBox="0 0 250 250" width="250" xmlns="http://www.w3.org/2000/svg" xmlns:xlink="http://www.w3.org/1999/xlink"><linearGradient id="a" gradientUnits="userSpaceOnUse" x1="43.1621802" x2="199.6510490342" y1="88.19375092" y2="182.70189192"><stop offset="0" stop-color="#01a4de"/><stop offset=".5" stop-color="#824592"/><stop offset="1" stop-color="#b91e73"/></linearGradient><path d="m33.273438 174.476562c-2.714844.136719-5.382813-.753906-7.476563-2.492187-2.3125-2.15625-3.660156-5.148437-3.738281-8.308594 0-.832031-7.476563-99.699219 20.769531-133.351562 28.664063-34.476563 78.515625-40.292969 111.335937-13.292969 32.816407 27.003906 36.554688 77.683594 7.890626 112.164062-28.246094 33.648438-125.871094 44.867188-127.117188 44.867188-.417969.414062-.832031.414062-1.664062.414062zm73.117187-164.921874c-21.828125.023437-42.476563 9.917968-56.167969 26.917968-23.675781 28.25-19.9375 118.394532-19.109375 125.875.195313.820313.335938 1.652344.417969 2.492188 0 0 .414062.414062 2.492188.414062 14.539062-1.660156 98.453124-14.125 120.886718-41.125 25.339844-30.742187 23.261719-75.609375-5.816406-99.703125-12.140625-9.652343-27.191406-14.925781-42.703125-14.953125zm-29.082031 215.601562c-22.015625 0-38.21875-1.660156-38.632813-1.660156-3.21875-.511719-6.15625-2.125-8.308593-4.570313-2.035157-2.414062-2.804688-5.648437-2.078126-8.722656 0-.832031 13.292969-98.871094 47.359376-125.871094 34.894531-28.25 85.160156-23.265625 112.164062 10.382813 12.84375 16.316406 18.402344 37.203125 15.371094 57.746094-3.109375 21.089843-14.277344 40.152343-31.15625 53.171874-20.773438 16.117188-62.730469 19.441407-94.71875 19.441407zm-39.878906-11.628906c.414062.414062 1.660156.414062 2.492187.828125 14.539063 2.078125 98.871094 6.234375 126.703125-16.199219 14.796875-11.816406 24.710938-28.679688 27.832031-47.359375 2.738281-18.195313-2.226562-36.710937-13.707031-51.097656-23.265625-29.492188-67.714844-33.648438-98.871094-8.722657-28.664062 22.847657-43.617187 112.164063-44.035156 119.640626-.828125 2.410156-.828125 2.824218-.414062 2.824218zm0 0" fill="url(#a)"/></svg>

<svg xmlns="http://www.w3.org/2000/svg" xmlns:xlink="http://www.w3.org/1999/xlink" width="250px" height="250px" viewBox="0 0 250 250" version="1.1">
<defs>
<linearGradient id="linear0" gradientUnits="userSpaceOnUse" x1="5.3" y1="21.23" x2="42.970001" y2="43.98" gradientTransform="matrix(4.154204,0,0,4.154204,21.144899,0)">
<stop offset="0" style="stop-color:rgb(0.392157%,64.313728%,87.058824%);stop-opacity:1;"/>
<stop offset="0.5" style="stop-color:rgb(50.980395%,27.058825%,57.254905%);stop-opacity:1;"/>
<stop offset="1" style="stop-color:rgb(72.549021%,11.764706%,45.09804%);stop-opacity:1;"/>
</linearGradient>
</defs>
<g id="surface1">
<path style=" stroke:none;fill-rule:nonzero;fill:url(#linear0);" d="M 33.273438 174.476562 C 30.558594 174.613281 27.890625 173.722656 25.796875 171.984375 C 23.484375 169.828125 22.136719 166.835938 22.058594 163.675781 C 22.058594 162.84375 14.582031 63.976562 42.828125 30.324219 C 71.492188 -4.152344 121.34375 -9.96875 154.164062 17.03125 C 186.980469 44.035156 190.71875 94.714844 162.054688 129.195312 C 133.808594 162.84375 36.183594 174.0625 34.9375 174.0625 C 34.519531 174.476562 34.105469 174.476562 33.273438 174.476562 Z M 106.390625 9.554688 C 84.5625 9.578125 63.914062 19.472656 50.222656 36.472656 C 26.546875 64.722656 30.285156 154.867188 31.113281 162.347656 C 31.308594 163.167969 31.449219 164 31.53125 164.839844 C 31.53125 164.839844 31.945312 165.253906 34.023438 165.253906 C 48.5625 163.59375 132.476562 151.128906 154.910156 124.128906 C 180.25 93.386719 178.171875 48.519531 149.09375 24.425781 C 136.953125 14.773438 121.902344 9.5 106.390625 9.472656 Z M 77.308594 225.15625 C 55.292969 225.15625 39.089844 223.496094 38.675781 223.496094 C 35.457031 222.984375 32.519531 221.371094 30.367188 218.925781 C 28.332031 216.511719 27.5625 213.277344 28.289062 210.203125 C 28.289062 209.371094 41.582031 111.332031 75.648438 84.332031 C 110.542969 56.082031 160.808594 61.066406 187.8125 94.714844 C 200.65625 111.03125 206.214844 131.917969 203.183594 152.460938 C 200.074219 173.550781 188.90625 192.613281 172.027344 205.632812 C 151.253906 221.75 109.296875 225.074219 77.308594 225.074219 Z M 37.429688 213.527344 C 37.84375 213.941406 39.089844 213.941406 39.921875 214.355469 C 54.460938 216.433594 138.792969 220.589844 166.625 198.15625 C 181.421875 186.339844 191.335938 169.476562 194.457031 150.796875 C 197.195312 132.601562 192.230469 114.085938 180.75 99.699219 C 157.484375 70.207031 113.035156 66.050781 81.878906 90.976562 C 53.214844 113.824219 38.261719 203.140625 37.84375 210.617188 C 37.015625 213.027344 37.015625 213.441406 37.429688 213.441406 Z M 37.429688 213.527344 "/>
</g>
</svg>
